svg/u1f473_1f3ff_200d_2642.svg

<svg viewBox="0 0 128 128" xmlns="http://www.w3.org/2000/svg">
  <g id="suit_1_">
    <linearGradient id="SVGID_1_" gradientTransform="matrix(1 0 0 -1 0 128)" gradientUnits="userSpaceOnUse" x1="64" x2="64" y1="4.2633" y2="31.0502">
      <stop offset="5.160900e-04" stop-color="#E3E3E3"/>
      <stop offset="1" stop-color="#C9C9C9"/>
    </linearGradient>
    <path d="M116,120.99V124H12v-3.01c0-14.66,17.69-22.05,38.2-24.25c4.52-0.5,9.17-0.73,13.8-0.74h0.14 c4.59,0,9.2,0.26,13.66,0.78C98.38,99.18,116,107.14,116,120.99z" fill="url(#SVGID_1_)"/>
    <path d="M77.8,96.78v7.12c0,5.47-5.61,9.91-12.54,9.91h-2.51c-6.93,0-12.55-4.44-12.55-9.92v-7.15 c4.52-0.5,9.17-0.73,13.8-0.74h0.14C68.73,96,73.34,96.26,77.8,96.78z" fill="#B9BBBD"/>
    <rect fill="#B9BBBD" height="12.5" width="4.54" x="61.78" y="111.5"/>
  </g>
  <path id="neck" d="M73.08,90.17H54.92v9.98c0,4.51,3.7,8.17,8.26,8.17h1.65c4.56,0,8.26-3.66,8.26-8.17v-9.98 C73.1,90.17,73.08,90.17,73.08,90.17z" fill="#3C2B24"/>
  <path id="ears" d="M91.33,50.52H36.67c-5.89,0-10.71,5.14-10.71,11.41s4.82,11.41,10.71,11.41h54.65 c5.89,0,10.71-5.14,10.71-11.41S97.22,50.52,91.33,50.52z" fill="#3C2B24"/>
  <path id="head" d="M64,11.16c-17.4,0-33.52,18.61-33.52,45.39c0,26.64,16.61,39.81,33.52,39.81 s33.52-13.17,33.52-39.81C97.53,29.77,81.4,11.16,64,11.16z" fill="#70534A"/>
  <g id="eyes_1_">
    <ellipse cx="47.56" cy="58.9" fill="#1A1717" rx="4.93" ry="5.1"/>
    <ellipse cx="80.44" cy="58.9" fill="#1A1717" rx="4.93" ry="5.1"/>
  </g>
  <path id="nose_1_" d="M67.86,68.15c-0.11-0.04-0.21-0.07-0.32-0.08h-7.07c-0.11,0.01-0.22,0.04-0.32,0.08 c-0.64,0.26-0.99,0.92-0.69,1.63s1.71,2.69,4.55,2.69c2.84,0,4.25-1.99,4.55-2.69C68.86,69.07,68.5,68.41,67.86,68.15z" fill="#33251F"/>
  <path id="mouth_1_" d="M72.43,76.23c-3.19,1.89-13.63,1.89-16.81,0c-1.83-1.09-3.7,0.58-2.94,2.24 c0.75,1.63,6.45,5.42,11.37,5.42s10.55-3.79,11.3-5.42C76.1,76.81,74.25,75.14,72.43,76.23z" fill="#1A1717"/>
  <path id="hair" d="M64.07,5.92h-0.02c0,0-0.01,0-0.02,0C18.6,6.17,27.86,56.26,27.86,56.26s5.1,8.99,5.1,8.81 c-0.16-7.25,2.74-20.09,4.8-25.55c1.04-2.76,3.9-4.36,6.79-3.83c4.46,0.8,11.55,1.8,19.38,1.8h0.08h0.08c7.83,0,14.92-1,19.37-1.81 c2.9-0.53,5.76,1.08,6.79,3.83c2.06,5.47,4.96,18.3,4.8,25.55c0,0.18,5.1-8.81,5.1-8.81S109.5,6.17,64.07,5.92L64.07,5.92z" fill="#232020"/>
  <g id="eyebrows_1_">
    <path d="M88.1,50.88L88.1,50.88c0-0.01-2.29-3.61-7.6-3.61s-7.6,3.6-7.6,3.6l0,0.01 c-0.19,0.26-0.3,0.58-0.3,0.92c0,0.87,0.71,1.58,1.57,1.58c0.18,0,0.62-0.13,0.66-0.15c3.18-1.31,5.67-1.32,5.67-1.32 s2.47,0.01,5.65,1.32c0.04,0.02,0.48,0.15,0.66,0.15c0.87,0,1.57-0.71,1.57-1.58C88.4,51.45,88.28,51.13,88.1,50.88z" fill="#1A1717"/>
    <path d="M55.09,50.88L55.09,50.88c0.01-0.01-2.29-3.61-7.59-3.61s-7.6,3.6-7.6,3.6l0.01,0.01 c-0.19,0.26-0.3,0.58-0.3,0.92c0,0.87,0.71,1.58,1.58,1.58c0.18,0,0.62-0.13,0.66-0.15c3.18-1.31,5.67-1.32,5.67-1.32 s2.47,0.01,5.65,1.32c0.04,0.02,0.48,0.15,0.66,0.15c0.87,0,1.58-0.71,1.58-1.58C55.39,51.45,55.28,51.13,55.09,50.88z" fill="#1A1717"/>
  </g>
  <g id="turban_1_">
    <path d="M104.51,43.89c0,0-5.72-8.44-30.88-16.69c-19.9-6.53-37.98-6.73-46.06-5.61c0,0-0.25,0.23-0.91,1.25 c0,0,22.46-2.37,49.08,7.99c9.78,3.81,22.83,8.57,28.23,16.47L104.51,43.89z" fill="#B9BBBD"/>
    <path d="M64.36,39.18c-23.05-5.1-36-6.83-40.52-2.29C23.22,30.2,24.91,25.61,26.69,23 c2.05-3.01,4.66-6.72,7.55-8.83C44.51,6.67,53.28,4,63.45,4c9.96,0,22.17,6.24,31.22,12.73c2.91,2.09,4.87,3.69,6.92,6.69 c7.8,11.42-0.3,34.26-0.3,34.26S91.32,45.14,64.36,39.18z" fill="none"/>
    <linearGradient id="SVGID_2_" gradientTransform="matrix(1 0 0 1 0 0.6771)" gradientUnits="userSpaceOnUse" x1="64.1592" x2="64.1592" y1="3.5704" y2="54.9232">
      <stop offset="0.0167" stop-color="#EEEEEE"/>
      <stop offset="0.3279" stop-color="#E3E3E3"/>
      <stop offset="0.8795" stop-color="#C5C5C5"/>
      <stop offset="1" stop-color="#BDBDBD"/>
    </linearGradient>
    <path d="M60.22,40.53c23.15-4.54,37.45-7.4,44.77-3.08c0.61-6.69-1.47-11.53-3.39-14.03 C93.42,12.75,73.49,4,63.31,4C53.35,4,36,8.67,26.54,23c-7.63,11.55,0.3,34.26,0.3,34.26S33.17,45.83,60.22,40.53z" fill="url(#SVGID_2_)"/>
    <path d="M23.64,43.47c0,0,4.34-8.02,29.51-16.27c19.9-6.52,39.36-6.31,47.43-5.19c0,0,0.25,0.23,0.91,1.25 c0,0-23.84-2.79-50.46,7.57c-9.78,3.81-21.45,8.15-26.85,16.05L23.64,43.47z" fill="#B9BBBD"/>
    <path d="M104.98,36.73c0,0.24,0,0.48-0.01,0.72c-0.01,1.87-0.15,3.74-0.37,5.55 c-0.13,1.17-0.3,2.3-0.49,3.4c-1.09,6.39-2.82,11.28-2.82,11.28s-9.65-12.13-35.63-18.21c-0.43-0.09-0.86-0.19-1.31-0.29 c-1.47-0.33-2.91-0.64-4.31-0.93c-0.8-0.17-1.59-0.33-2.37-0.49c-19.14-3.88-29.77-4.95-33.84-0.87 C23.22,30.2,24.91,25.61,26.69,23c0.1-0.15,0.21-0.3,0.32-0.45c0.31-0.44,0.66-0.89,1.03-1.36c2.16-2.69,3.85-5.31,6.2-7.02 c6.42-4.69,12.24-7.49,18.19-8.93h0.01c2.78-0.67,5.6-1.05,8.5-1.18c0.4-0.02,0.8-0.03,1.19-0.04C62.53,4,62.93,4,63.31,4 c0.31,0,0.63,0.01,0.95,0.02c1.62,0.05,3.29,0.26,5,0.6c0.33,0.06,0.67,0.13,1.01,0.21c8.34,1.91,17.34,6.83,24.41,11.9 c1.46,1.05,2.67,1.97,3.78,3c0.07,0.06,0.14,0.13,0.21,0.2c1.03,0.99,1.97,2.08,2.93,3.49c1.97,2.89,2.93,6.53,3.25,10.34 C104.93,34.74,104.97,35.74,104.98,36.73z" fill="#C4C6C7"/>
    <path d="M104.61,43c-0.13,1.17-0.3,2.3-0.49,3.4C98,39.14,85.6,34.6,76.13,30.91 c-23.38-9.09-43.29-8.79-49.12-8.36c0.31-0.44,0.66-0.89,1.03-1.36c9.14-0.95,26.64-0.34,45.91,5.98 C93.67,33.63,101.82,40.2,104.61,43z" fill="#B9BBBD"/>
    <linearGradient id="SVGID_3_" gradientTransform="matrix(1 0 0 -1 0 128)" gradientUnits="userSpaceOnUse" x1="64.1844" x2="64.1844" y1="123.7195" y2="74.4289">
      <stop offset="0.0167" stop-color="#EEEEEE"/>
      <stop offset="0.3279" stop-color="#E3E3E3"/>
      <stop offset="0.8795" stop-color="#C5C5C5"/>
      <stop offset="1" stop-color="#BDBDBD"/>
    </linearGradient>
    <path d="M105.04,36.76c-0.02-0.01-0.04-0.02-0.06-0.03c-6.14-3.23-36.35-0.76-44.94,1.52 c-0.22,0.06-0.42,0.11-0.61,0.17C26.6,48.39,26.88,56.75,26.84,57.24c0,0.01,0,0.02,0,0.02s0,0-0.01-0.01 c-0.05-0.16-0.55-1.61-1.15-3.88c-0.54-1.97-1.15-4.55-1.63-7.44c-0.18-1.09-0.34-2.23-0.48-3.4c-0.39-3.46-0.52-7.15-0.06-10.63 c0.16-1.28,0.4-2.53,0.74-3.73v-0.01c0.52-1.87,1.26-3.61,2.28-5.16C33.4,12.61,42.49,7.5,52.44,5.24h0.01 c2.52-0.57,5.02-0.94,7.42-1.12c0.36-0.02,0.72-0.04,1.08-0.06c0.4-0.02,0.8-0.03,1.19-0.04C62.53,4,62.93,4,63.31,4 c0.31,0,0.63,0.01,0.95,0.02c0.39,0.02,0.81,0.04,1.22,0.07c1.2,0.11,2.46,0.28,3.77,0.53c0.33,0.06,0.67,0.13,1.01,0.21 C73.69,5.56,77.37,6.77,81,8.34c0.9,0.39,1.79,0.8,2.68,1.24h0.01c5.58,2.7,10.87,6.21,14.76,10.15c0.07,0.06,0.14,0.13,0.21,0.2 c0.55,0.55,1.05,1.12,1.54,1.69c0.38,0.45,0.73,0.9,1.06,1.35c0.11,0.15,0.23,0.3,0.33,0.45c1.54,2.17,3.36,5.4,3.53,10.37 C105.16,34.72,105.13,35.71,105.04,36.76z" fill="url(#SVGID_3_)"/>
    <path d="M101.27,22.97c-5.64-0.42-27.08-1.23-50.64,7.94c-9.44,3.68-20.44,7.79-26.57,15.02 c-0.18-1.09-0.34-2.23-0.48-3.4c2.82-2.81,9.62-8.93,29.23-15.36c19.34-6.34,38.29-6.51,47.39-5.55 C100.58,22.07,100.94,22.52,101.27,22.97z" fill="#B9BBBD"/>
    <path d="M105.04,36.76c-0.02-0.01-0.04-0.02-0.06-0.03c0,0.24,0,0.48-0.01,0.72 c-4.61-0.34-21.37-1.09-39.31,2.02c-4.07,0.71-8.2,1.62-12.27,2.77c-9.71,2.76-20.42,7.78-26.55,15l-0.01,0.01 c-0.05-0.16-0.55-1.61-1.15-3.88c3.65-3.19,12.09-10.34,26.42-14.25c1.81-0.49,3.67-0.95,5.57-1.36c19.18-4.18,42.04-4.44,47.17-4 c0.09,0.01,0.19,0.02,0.27,0.03C105.16,34.72,105.13,35.71,105.04,36.76z" fill="#B9BBBD"/>
    <path d="M83.68,9.58c-8.35,0.07-23.84,1.72-37.55,7.78c-6.75,2.99-18.27,10.01-22.61,14.54 c0.16-1.28,0.4-2.53,0.74-3.73v-0.01c2.31-2.3,7.31-7.33,20.23-12.7C58.53,9.63,73.75,7.93,81,8.34 C81.91,8.73,82.79,9.14,83.68,9.58z" fill="#B9BBBD"/>
  </g>
</svg>

<svg viewBox="0 0 128 128" xmlns="http://www.w3.org/2000/svg">
  <defs>
    <linearGradient id="SVGID_1_" gradientTransform="matrix(1 0 0 -1 0 0)" gradientUnits="userSpaceOnUse" x1="64" x2="64" y1="-123.7367" y2="-96.9498">
      <stop offset="5.160900e-04" stop-color="#E3E3E3"/>
      <stop offset="1" stop-color="#C9C9C9"/>
    </linearGradient>
    <linearGradient id="SVGID_2_" gradientUnits="userSpaceOnUse" x1="64.1592" x2="64.1592" y1="4.2475" y2="55.6003">
      <stop offset="0.0167" stop-color="#EEEEEE"/>
      <stop offset="0.3279" stop-color="#E3E3E3"/>
      <stop offset="0.8795" stop-color="#C5C5C5"/>
      <stop offset="1" stop-color="#BDBDBD"/>
    </linearGradient>
    <linearGradient id="SVGID_3_" gradientTransform="matrix(1 0 0 -1 0 0)" gradientUnits="userSpaceOnUse" x1="64.1844" x2="64.1844" y1="-4.2805" y2="-53.5711">
      <stop offset="0.0167" stop-color="#EEEEEE"/>
      <stop offset="0.3279" stop-color="#E3E3E3"/>
      <stop offset="0.8795" stop-color="#C5C5C5"/>
      <stop offset="1" stop-color="#BDBDBD"/>
    </linearGradient>
  </defs>
  <path d="M116,120.99 L116,124 L12,124 L12,120.99 C12,106.33 29.69,98.94 50.2,96.74 C54.72,96.24 59.37,96.01 64,96 L64.14,96 C68.73,96 73.34,96.26 77.8,96.78 C98.38,99.18 116,107.14 116,120.99 Z" fill="url(#SVGID_1_)"/>
  <path d="M77.8,96.78 L77.8,103.9 C77.8,109.37 72.19,113.81 65.26,113.81 L62.75,113.81 C55.82,113.81 50.2,109.37 50.2,103.89 L50.2,96.74 C54.72,96.24 59.37,96.01 64,96 L64.14,96 C68.73,96 73.34,96.26 77.8,96.78 Z" fill="#B9BBBD"/>
  <path d="M61.78,111.5 L66.32,111.5 L66.32,124 L61.78,124 L61.78,111.5 Z" fill="#B9BBBD"/>
  <path id="neck" d="M73.08,90.17 L54.92,90.17 L54.92,100.15 C54.92,104.66 58.62,108.32 63.18,108.32 L64.83,108.32 C69.39,108.32 73.09,104.66 73.09,100.15 L73.09,90.17 C73.1,90.17 73.08,90.17 73.08,90.17 Z" fill="#3C2B24"/>
  <path id="ears" d="M91.33,50.52 L36.67,50.52 C30.78,50.52 25.96,55.66 25.96,61.93 C25.96,68.2 30.78,73.34 36.67,73.34 L91.32,73.34 C97.21,73.34 102.03,68.2 102.03,61.93 C102.03,55.66 97.22,50.52 91.33,50.52 Z" fill="#3C2B24"/>
  <path id="head" d="M64,11.16 C46.6,11.16 30.48,29.77 30.48,56.55 C30.48,83.19 47.09,96.36 64,96.36 C80.91,96.36 97.52,83.19 97.52,56.55 C97.53,29.77 81.4,11.16 64,11.16 Z" fill="#70534A"/>
  <path d="M52.49,58.9 A4.93 5.1 0 1 1 42.63,58.9 A4.93 5.1 0 1 1 52.49,58.9 Z" fill="#1A1717"/>
  <path d="M85.37,58.9 A4.93 5.1 0 1 1 75.51,58.9 A4.93 5.1 0 1 1 85.37,58.9 Z" fill="#1A1717"/>
  <path id="nose_1_" d="M67.86,68.15 C67.75,68.11 67.65,68.08 67.54,68.07 L60.47,68.07 C60.36,68.08 60.25,68.11 60.15,68.15 C59.51,68.41 59.16,69.07 59.46,69.78 C59.76,70.49 61.17,72.47 64.01,72.47 C66.85,72.47 68.26,70.48 68.56,69.78 C68.86,69.07 68.5,68.41 67.86,68.15 Z" fill="#33251F"/>
  <path id="mouth_1_" d="M72.43,76.23 C69.24,78.12 58.8,78.12 55.62,76.23 C53.79,75.14 51.92,76.81 52.68,78.47 C53.43,80.1 59.13,83.89 64.05,83.89 C68.97,83.89 74.6,80.1 75.35,78.47 C76.1,76.81 74.25,75.14 72.43,76.23 Z" fill="#1A1717"/>
  <path id="hair" d="M64.07,5.92 L64.05,5.92 C64.05,5.92 64.04,5.92 64.03,5.92 C18.6,6.17 27.86,56.26 27.86,56.26 C27.86,56.26 32.96,65.25 32.96,65.07 C32.8,57.82 35.7,44.98 37.76,39.52 C38.8,36.76 41.66,35.16 44.55,35.69 C49.01,36.49 56.1,37.49 63.93,37.49 L64.01,37.49 L64.09,37.49 C71.92,37.49 79.01,36.49 83.46,35.68 C86.36,35.15 89.22,36.76 90.25,39.51 C92.31,44.98 95.21,57.81 95.05,65.06 C95.05,65.24 100.15,56.25 100.15,56.25 C100.15,56.25 109.5,6.17 64.07,5.92 L64.07,5.92 Z" fill="#232020"/>
  <path d="M88.1,50.88 L88.1,50.88 C88.1,50.87 85.81,47.27 80.5,47.27 C75.19,47.27 72.9,50.87 72.9,50.87 L72.9,50.88 C72.71,51.14 72.6,51.46 72.6,51.8 C72.6,52.67 73.31,53.38 74.17,53.38 C74.35,53.38 74.79,53.25 74.83,53.23 C78.01,51.92 80.5,51.91 80.5,51.91 C80.5,51.91 82.97,51.92 86.15,53.23 C86.19,53.25 86.63,53.38 86.81,53.38 C87.68,53.38 88.38,52.67 88.38,51.8 C88.4,51.45 88.28,51.13 88.1,50.88 Z" fill="#1A1717"/>
  <path d="M55.09,50.88 L55.09,50.88 C55.1,50.87 52.8,47.27 47.5,47.27 C42.2,47.27 39.9,50.87 39.9,50.87 L39.91,50.88 C39.72,51.14 39.61,51.46 39.61,51.8 C39.61,52.67 40.32,53.38 41.19,53.38 C41.37,53.38 41.81,53.25 41.85,53.23 C45.03,51.92 47.52,51.91 47.52,51.91 C47.52,51.91 49.99,51.92 53.17,53.23 C53.21,53.25 53.65,53.38 53.83,53.38 C54.7,53.38 55.41,52.67 55.41,51.8 C55.39,51.45 55.28,51.13 55.09,50.88 Z" fill="#1A1717"/>
  <path d="M104.51,43.89 C104.51,43.89 98.79,35.45 73.63,27.2 C53.73,20.67 35.65,20.47 27.57,21.59 C27.57,21.59 27.32,21.82 26.66,22.84 C26.66,22.84 49.12,20.47 75.74,30.83 C85.52,34.64 98.57,39.4 103.97,47.3 L104.51,43.89 Z" fill="#B9BBBD"/>
  <path d="M60.22,40.53 C83.37,35.99 97.67,33.13 104.99,37.45 C105.6,30.76 103.52,25.92 101.6,23.42 C93.42,12.75 73.49,4 63.31,4 C53.35,4 36,8.67 26.54,23 C18.91,34.55 26.84,57.26 26.84,57.26 C26.84,57.26 33.17,45.83 60.22,40.53 Z" fill="url(#SVGID_2_)"/>
  <path d="M23.64,43.47 C23.64,43.47 27.98,35.45 53.15,27.2 C73.05,20.68 92.51,20.89 100.58,22.01 C100.58,22.01 100.83,22.24 101.49,23.26 C101.49,23.26 77.65,20.47 51.03,30.83 C41.25,34.64 29.58,38.98 24.18,46.88 L23.64,43.47 Z" fill="#B9BBBD"/>
  <path d="M104.98,36.73 C104.98,36.97 104.98,37.21 104.97,37.45 C104.96,39.32 104.82,41.19 104.6,43 C104.47,44.17 104.3,45.3 104.11,46.4 C103.02,52.79 101.29,57.68 101.29,57.68 C101.29,57.68 91.64,45.55 65.66,39.47 C65.23,39.38 64.8,39.28 64.35,39.18 C62.88,38.85 61.44,38.54 60.04,38.25 C59.24,38.08 58.45,37.92 57.67,37.76 C38.53,33.88 27.9,32.81 23.83,36.89 C23.22,30.2 24.91,25.61 26.69,23 C26.79,22.85 26.9,22.7 27.01,22.55 C27.32,22.11 27.67,21.66 28.04,21.19 C30.2,18.5 31.89,15.88 34.24,14.17 C40.66,9.48 46.48,6.68 52.43,5.24 L52.44,5.24 C55.22,4.57 58.04,4.19 60.94,4.06 C61.34,4.04 61.74,4.03 62.13,4.02 C62.53,4 62.93,4 63.31,4 C63.62,4 63.94,4.01 64.26,4.02 C65.88,4.07 67.55,4.28 69.26,4.62 C69.59,4.68 69.93,4.75 70.27,4.83 C78.61,6.74 87.61,11.66 94.68,16.73 C96.14,17.78 97.35,18.7 98.46,19.73 C98.53,19.79 98.6,19.86 98.67,19.93 C99.7,20.92 100.64,22.01 101.6,23.42 C103.57,26.31 104.53,29.95 104.85,33.76 C104.93,34.74 104.97,35.74 104.98,36.73 Z" fill="#C4C6C7"/>
  <path d="M104.61,43 C104.48,44.17 104.31,45.3 104.12,46.4 C98,39.14 85.6,34.6 76.13,30.91 C52.75,21.82 32.84,22.12 27.01,22.55 C27.32,22.11 27.67,21.66 28.04,21.19 C37.18,20.24 54.68,20.85 73.95,27.17 C93.67,33.63 101.82,40.2 104.61,43 Z" fill="#B9BBBD"/>
  <path d="M105.04,36.76 C105.02,36.75 105,36.74 104.98,36.73 C98.84,33.5 68.63,35.97 60.04,38.25 C59.82,38.31 59.62,38.36 59.43,38.42 C26.6,48.39 26.88,56.75 26.84,57.24 C26.84,57.25 26.84,57.26 26.84,57.26 C26.84,57.26 26.84,57.26 26.83,57.25 C26.78,57.09 26.28,55.64 25.68,53.37 C25.14,51.4 24.53,48.82 24.05,45.93 C23.87,44.84 23.71,43.7 23.57,42.53 C23.18,39.07 23.05,35.38 23.51,31.9 C23.67,30.62 23.91,29.37 24.25,28.17 L24.25,28.16 C24.77,26.29 25.51,24.55 26.53,23 C33.4,12.61 42.49,7.5 52.44,5.24 L52.45,5.24 C54.97,4.67 57.47,4.3 59.87,4.12 C60.23,4.1 60.59,4.08 60.95,4.06 C61.35,4.04 61.75,4.03 62.14,4.02 C62.53,4 62.93,4 63.31,4 C63.62,4 63.94,4.01 64.26,4.02 C64.65,4.04 65.07,4.06 65.48,4.09 C66.68,4.2 67.94,4.37 69.25,4.62 C69.58,4.68 69.92,4.75 70.26,4.83 C73.69,5.56 77.37,6.77 81,8.34 C81.9,8.73 82.79,9.14 83.68,9.58 L83.69,9.58 C89.27,12.28 94.56,15.79 98.45,19.73 C98.52,19.79 98.59,19.86 98.66,19.93 C99.21,20.48 99.71,21.05 100.2,21.62 C100.58,22.07 100.93,22.52 101.26,22.97 C101.37,23.12 101.49,23.27 101.59,23.42 C103.13,25.59 104.95,28.82 105.12,33.79 C105.16,34.72 105.13,35.71 105.04,36.76 Z" fill="url(#SVGID_3_)"/>
  <path d="M101.27,22.97 C95.63,22.55 74.19,21.74 50.63,30.91 C41.19,34.59 30.19,38.7 24.06,45.93 C23.88,44.84 23.72,43.7 23.58,42.53 C26.4,39.72 33.2,33.6 52.81,27.17 C72.15,20.83 91.1,20.66 100.2,21.62 C100.58,22.07 100.94,22.52 101.27,22.97 Z" fill="#B9BBBD"/>
  <path d="M105.04,36.76 C105.02,36.75 105,36.74 104.98,36.73 C104.98,36.97 104.98,37.21 104.97,37.45 C100.36,37.11 83.6,36.36 65.66,39.47 C61.59,40.18 57.46,41.09 53.39,42.24 C43.68,45 32.97,50.02 26.84,57.24 L26.83,57.25 C26.78,57.09 26.28,55.64 25.68,53.37 C29.33,50.18 37.77,43.03 52.1,39.12 C53.91,38.63 55.77,38.17 57.67,37.76 C76.85,33.58 99.71,33.32 104.84,33.76 C104.93,33.77 105.03,33.78 105.11,33.79 C105.16,34.72 105.13,35.71 105.04,36.76 Z" fill="#B9BBBD"/>
  <path d="M83.68,9.58 C75.33,9.65 59.84,11.3 46.13,17.36 C39.38,20.35 27.86,27.37 23.52,31.9 C23.68,30.62 23.92,29.37 24.26,28.17 L24.26,28.16 C26.57,25.86 31.57,20.83 44.49,15.46 C58.53,9.63 73.75,7.93 81,8.34 C81.91,8.73 82.79,9.14 83.68,9.58 Z" fill="#B9BBBD"/>
</svg>
